src/svg/user.svg

<svg width="25" height="25" viewBox="0 0 25 25" fill="none" xmlns="http://www.w3.org/2000/svg">
<path fill-rule="evenodd" clip-rule="evenodd" d="M8.9836 7.29164C8.9836 5.34944 10.5581 3.77498 12.5003 3.77498C14.4425 3.77498 16.0169 5.34944 16.0169 7.29164C16.0169 9.23384 14.4425 10.8083 12.5003 10.8083C10.5581 10.8083 8.9836 9.23384 8.9836 7.29164ZM12.5003 2.47498C9.84009 2.47498 7.6836 4.63147 7.6836 7.29164C7.6836 9.95181 9.84009 12.1083 12.5003 12.1083C15.1604 12.1083 17.3169 9.95181 17.3169 7.29164C17.3169 4.63147 15.1604 2.47498 12.5003 2.47498ZM9.37526 14.975L9.36096 14.975H9.36084C9.21978 14.975 9.13262 14.975 9.05645 14.9775C6.6077 15.0576 4.64125 17.0241 4.56108 19.4728C4.55859 19.549 4.55859 19.6362 4.55859 19.7773V19.7773V19.7916V19.8029C4.55859 19.8693 4.55859 19.9181 4.56001 19.9617C4.6057 21.3572 5.72637 22.4779 7.12189 22.5236C7.16544 22.525 7.21416 22.525 7.28049 22.525H7.28063H7.29193H17.7086H17.7199H17.72C17.7864 22.525 17.8351 22.525 17.8786 22.5236C19.2742 22.4779 20.3948 21.3572 20.4405 19.9617C20.4419 19.9181 20.4419 19.8693 20.4419 19.8029V19.7916V19.7773V19.7773C20.4419 19.6362 20.4419 19.549 20.4394 19.4728C20.3593 17.0241 18.3928 15.0576 15.9441 14.9775C15.8679 14.975 15.7807 14.975 15.6397 14.975H15.6396L15.6253 14.975H9.37526ZM9.09899 16.2768C9.1511 16.2751 9.21537 16.275 9.37526 16.275H15.6253C15.7852 16.275 15.8494 16.2751 15.9015 16.2768C17.6657 16.3345 19.0824 17.7512 19.1401 19.5154C19.1418 19.5675 19.1419 19.6317 19.1419 19.7916C19.1419 19.8742 19.1418 19.8997 19.1412 19.9191C19.1179 20.6301 18.547 21.201 17.8361 21.2243C17.8167 21.2249 17.7911 21.225 17.7086 21.225H7.29193C7.20941 21.225 7.18382 21.2249 7.16442 21.2243C6.4535 21.201 5.88259 20.6301 5.85932 19.9191C5.85868 19.8997 5.85859 19.8742 5.85859 19.7916C5.85859 19.6317 5.85868 19.5675 5.86039 19.5154C5.91814 17.7512 7.33483 16.3345 9.09899 16.2768Z" fill="#101F33"/>
</svg>

<svg xmlns="http://www.w3.org/2000/svg" width="25" height="25" fill="none"><path fill-rule="evenodd" d="M8.984 7.292A3.52 3.52 0 0 1 12.5 3.775a3.52 3.52 0 0 1 3.517 3.517 3.52 3.52 0 0 1-3.517 3.517 3.52 3.52 0 0 1-3.517-3.517zM12.5 2.475a4.82 4.82 0 0 0-4.817 4.817 4.82 4.82 0 0 0 4.817 4.817 4.82 4.82 0 0 0 4.817-4.817A4.82 4.82 0 0 0 12.5 2.475zm-3.125 12.5h-.014 0l-.304.002a4.65 4.65 0 0 0-4.495 4.495l-.002.305h0v.014.011l.001.159a2.65 2.65 0 0 0 2.562 2.562l.159.001h0 .011 10.417.011 0l.159-.001a2.65 2.65 0 0 0 2.562-2.562l.001-.159v-.011-.014h0l-.003-.305a4.65 4.65 0 0 0-4.495-4.495l-.304-.002h0-.014-6.25zm-.276 1.302l.276-.002h6.25l.276.002a3.35 3.35 0 0 1 3.239 3.239l.002.276-.001.128a1.35 1.35 0 0 1-1.305 1.305l-.127.001H7.292c-.083 0-.108 0-.128-.001a1.35 1.35 0 0 1-1.305-1.305v-.128l.002-.276a3.35 3.35 0 0 1 3.239-3.239z" fill="#101f33"/></svg>
